X:1
T:Title
%%score { ( 1 3 ) | ( 2 4 ) }
L:1/8
M:4/4
K:Bb
V:1 treble nm="Grand Piano"
V:3 treble 
V:2 bass 
V:4 bass 
V:1
 z4 z2 z[Q:1/4=100] [DF] | [DF][DF][DF][DF] [DF] [DB]2 [DB] | [Fd]2 [Ec]2 [DB]3 [FA] | %3
 GGGG G [=Ec]2 [DEB] | [CFA]2 [B,=EG]2 [A,F]3 [DF] | [DB][DB][DB][DB] [Fd] [DB]2 [FA] | %6
 GGGG G [Gc]2 [GB] | AAAA A A2 G |[M:7/8] F2 A2 [DB]3 |[M:1/8] B |[M:4/4] d2 d2 d4 | B2 B2 B4 | %12
 [DF][DF][DF][DF] [DB] [FB]2 c |[M:7/8] d2 d2 c3 |[M:1/8] B |[M:4/4] d2 d2 d4 | B2 B2 B4 | %17
 [DF][DF][FB][Gc] d d2 B |[M:7/8] d2 c2 z z2 |] %19
V:2
 z4 z2 z [B,,F,] | [B,,B,][B,,B,][B,,B,][B,,B,] [B,,B,] [B,,F,]2 [B,,B,] | %2
 [F,B,]2 [F,A,]2 [B,,B,]3 [D,B,] | [E,B,E][E,B,E][E,B,E][E,B,E] [E,B,E] [C,B,]2 C, | %4
 C,2 C,2 F,3 [B,,B,] | [B,,B,][B,,B,][B,,B,][B,,B,] [B,,B,] [B,,B,]2 [D,B,] | %6
 [E,B,E][E,B,E][E,B,E][E,B,E] [E,B,E] [E,E]2 [E,E] | %7
 [F,CF][F,CF][F,CF][F,CF] [F,CE] [F,CE]2 [F,B,E] |[M:7/8] [F,B,D]2 [F,CE]2 [B,,B,]3 | %9
[M:1/8][K:treble] [B,D] |[M:4/4] [B,F]B,[B,F]B, [B,F][K:bass] B,2 [D,B,] | %11
 [E,B,][E,B,][E,E][E,E] [E,E] [E,E]2 [E,B,E] | %12
 [B,,B,][B,,B,][B,,B,][B,,B,] [B,,B,] [D,B,]2[K:treble] [F,A,F] |[M:7/8] [B,F]2 [B,F]2 [F,A,F]3 | %14
[M:1/8] [B,D] |[M:4/4] [B,F]B,[B,F]B, [B,F][K:bass] B,2 [D,B,] | %16
 [E,B,][E,B,][E,E][E,E] [E,E] [E,E]2 [E,B,E] | %17
 [B,,B,][B,,B,][D,B,][E,B,] [F,B,F] [F,B,F]2 [G,B,D] |[M:7/8] [B,F]B,[A,F] A, B,,3 |] %19
V:3
 x8 | x8 | x8 | x8 | x8 | x8 | x8 | x8 |[M:7/8] x7 |[M:1/8] x |[M:4/4] z F z F z F2 [^Fc] | %11
 GGGG G G2 G | x8 |[M:7/8] x7 |[M:1/8] x |[M:4/4] z F z F z F2 [^Fc] | GGGG G G2 G | x8 | %18
[M:7/8] z F z E [B,DB]3 |] %19
V:4
 x8 | x8 | x8 | x8 | x8 | x8 | x8 | x8 |[M:7/8] x7 |[M:1/8][K:treble] x |[M:4/4] x5[K:bass] x3 | %11
 x8 | x7[K:treble] x |[M:7/8] x7 |[M:1/8] x |[M:4/4] x5[K:bass] x3 | x8 | x8 | %18
[M:7/8] F,2 F,2 z z2 |] %19

